packages/sources/icons/src/vitamix/maintain.svg

<svg width="24" height="24" viewBox="0 0 24 24" fill="none" xmlns="http://www.w3.org/2000/svg">
<path fill-rule="evenodd" clip-rule="evenodd" d="M4.5 19.5H8.18774C8.60196 19.5 8.93774 19.8358 8.93774 20.25C8.93774 20.6642 8.60196 21 8.18774 21H3.75C3.33579 21 3 20.6642 3 20.25V2.25C3 1.83579 3.33579 1.5 3.75 1.5H16.5C16.9142 1.5 17.25 1.83579 17.25 2.25V7.5C17.25 7.91421 16.9142 8.25 16.5 8.25C16.0858 8.25 15.75 7.91421 15.75 7.5V3H4.5V19.5ZM6 6C5.58579 6 5.25 5.66421 5.25 5.25C5.25 4.83579 5.58579 4.5 6 4.5H14.25C14.6642 4.5 15 4.83579 15 5.25C15 5.66421 14.6642 6 14.25 6H6ZM6 8.25C5.58579 8.25 5.25 7.91421 5.25 7.5C5.25 7.08579 5.58579 6.75 6 6.75H11.25C11.6642 6.75 12 7.08579 12 7.5C12 7.91421 11.6642 8.25 11.25 8.25H6ZM6 10.5C5.58579 10.5 5.25 10.1642 5.25 9.75C5.25 9.33579 5.58579 9 6 9H12.75C13.1642 9 13.5 9.33579 13.5 9.75C13.5 10.1642 13.1642 10.5 12.75 10.5H6ZM14.7693 11.2119C16.0461 9.93513 17.943 9.55648 19.5952 10.2039C20.0987 10.4012 20.2343 11.0502 19.8519 11.4326L17.9512 13.3333L19.0119 14.3939L20.9126 12.4932C21.2949 12.1109 21.9439 12.2465 22.1412 12.7499C22.7887 14.4022 22.41 16.2991 21.1332 17.5759C19.9782 18.7309 18.3157 19.151 16.7859 18.7412L13.1783 22.3489C12.8854 22.6418 12.4105 22.6418 12.1176 22.3489L9.99629 20.2275C9.7034 19.9346 9.7034 19.4598 9.99629 19.1669L13.6039 15.5593C13.1942 14.0295 13.6142 12.367 14.7693 11.2119ZM15.83 12.2726C14.9785 13.124 14.7261 14.3887 15.1579 15.4906C15.2667 15.7682 15.2007 16.0838 14.9899 16.2946L11.5873 19.6972L12.648 20.7579L16.0506 17.3553C16.2614 17.1445 16.577 17.0785 16.8546 17.1873C17.9565 17.6191 19.2212 17.3667 20.0726 16.5152C20.6032 15.9846 20.9012 15.2935 20.9459 14.5813L19.5423 15.9849C19.2494 16.2778 18.7745 16.2778 18.4816 15.9849L16.3603 13.8636C16.0674 13.5707 16.0674 13.0958 16.3603 12.8029L17.7639 11.3993C17.0517 11.444 16.3606 11.742 15.83 12.2726Z" fill="#001018"/>
</svg>

<svg width="24" height="24" fill="none" xmlns="http://www.w3.org/2000/svg"><path fill-rule="evenodd" clip-rule="evenodd" d="M4.5 19.5h3.688a.75.75 0 0 1 0 1.5H3.75a.75.75 0 0 1-.75-.75v-18a.75.75 0 0 1 .75-.75H16.5a.75.75 0 0 1 .75.75V7.5a.75.75 0 0 1-1.5 0V3H4.5v16.5zM6 6a.75.75 0 0 1 0-1.5h8.25a.75.75 0 0 1 0 1.5H6zm0 2.25a.75.75 0 0 1 0-1.5h5.25a.75.75 0 0 1 0 1.5H6zm0 2.25A.75.75 0 0 1 6 9h6.75a.75.75 0 0 1 0 1.5H6zm8.77.712a4.5 4.5 0 0 1 4.825-1.008.75.75 0 0 1 .257 1.229l-1.9 1.9 1.06 1.06 1.9-1.9a.75.75 0 0 1 1.23.257 4.5 4.5 0 0 1-5.356 5.991l-3.608 3.608a.75.75 0 0 1-1.06 0l-2.122-2.122a.75.75 0 0 1 0-1.06l3.608-3.608a4.5 4.5 0 0 1 1.165-4.347zm1.06 1.06a3 3 0 0 0-.672 3.219.75.75 0 0 1-.168.804l-3.403 3.402 1.061 1.06 3.403-3.402a.75.75 0 0 1 .804-.168 3 3 0 0 0 4.09-2.606l-1.403 1.404a.75.75 0 0 1-1.06 0l-2.122-2.121a.75.75 0 0 1 0-1.061l1.404-1.404a2.996 2.996 0 0 0-1.934.874z" fill="#001018"/></svg>
